X: 194
P: Longways for as many as will
M: C|
L: 1/8
K: C
gf |\
e2dc G2c2 | E2 C4 cd | e2cd e2cd | e2 g4 fg |\
agag agag | (ag)(fe) d2g2 | e2dc c2d2 | e2 g4 :|
|: dc |\
f2F2 A2c2 | g2G2 B2d2 | a2A2 B2G2 | A2 c4 :|

